material/.icons/material/plus-network-outline.svg

<svg xmlns="http://www.w3.org/2000/svg" viewBox="0 0 24 24"><path d="M15 20a1 1 0 00-1-1h-1v-2h4a2 2 0 002-2V5a2 2 0 00-2-2H7a2 2 0 00-2 2v10a2 2 0 002 2h4v2h-1a1 1 0 00-1 1H2v2h7a1 1 0 001 1h4a1 1 0 001-1h7v-2h-7m-8-5V5h10v10H7m8-4h-2v2h-2v-2H9V9h2V7h2v2h2v2z"/></svg>

<?xml version="1.0" encoding="UTF-8"?><!DOCTYPE svg PUBLIC "-//W3C//DTD SVG 1.1//EN" "http://www.w3.org/Graphics/SVG/1.1/DTD/svg11.dtd"><svg xmlns="http://www.w3.org/2000/svg" xmlns:xlink="http://www.w3.org/1999/xlink" version="1.1" id="mdi-plus-network-outline" width="24" height="24" viewBox="0 0 24 24"><path d="M15,20A1,1 0 0,0 14,19H13V17H17A2,2 0 0,0 19,15V5A2,2 0 0,0 17,3H7A2,2 0 0,0 5,5V15A2,2 0 0,0 7,17H11V19H10A1,1 0 0,0 9,20H2V22H9A1,1 0 0,0 10,23H14A1,1 0 0,0 15,22H22V20H15M7,15V5H17V15H7M15,11H13V13H11V11H9V9H11V7H13V9H15V11Z" /></svg>
